X:155
T:Green Fields of Glentown, The
R:reel
C:Tommy Peoples
D:Sharon Shannon 1.
D:Donal Lunny: Live at the National Concert Hall.
M:C|
K:Ador
EA,~A,2 E2DB,|G,B,~B,2 G,A,B,D|EA,~A,2 E2DE|GBeB dBAB|
eB~B2 eBdB|AE~E2 DG,B,G,|A,E~E2 E2DE|GEDB, B,A,~A,2:|
|:A2EA cAFA|G2DB, G,A,B,D|EA~A2 GABd|edBA aged|
bg~g2 afge|dB~B2 GEDB,|A,E~E2 E2DE|GEDB, B,A,~A,2:|
|:A2EA cAFA|aged bage|dG~G2 DGBd|gedc Bgfg|
e2de fedB|AE~E2 DG,B,G,|A,E~E2 E2DE|GEDB, B,A,~A,2:|
